public/img/icons/prize2-label.svg

<svg width="25" height="25" viewBox="0 0 25 25" fill="none" xmlns="http://www.w3.org/2000/svg">
<g clip-path="url(#clip0_683_10407)">
<path d="M2.63687 13.6424L10.7708 22.9569C11.4825 23.7331 12.3128 24.1212 13.2618 24.1212C14.109 24.1212 14.8377 23.8787 15.4477 23.3935L22.514 17.7175C23.1919 17.1354 23.5816 16.4077 23.6833 15.5344C23.785 14.7259 23.5308 13.9335 22.9207 13.1573L14.7869 3.84284C13.9057 2.74322 12.7534 2.04787 11.33 1.75679L4.26365 0.204381C3.58583 0.0103293 2.9419 0.155868 2.33185 0.640996L1.46763 1.36869C0.959262 1.72445 0.705078 2.3066 0.705078 3.11515L1.11177 10.0525C1.28123 11.4432 1.7896 12.6398 2.63687 13.6424ZM3.85696 2.19341L11.0249 3.84284C11.7705 4.00455 12.5161 4.44117 13.2618 5.15269L21.3956 14.4672C21.6668 14.7259 21.7515 15.017 21.6498 15.3404C21.6498 15.5344 21.4973 15.8093 21.1923 16.1651L14.126 21.8411C13.8887 22.0352 13.6007 22.1241 13.2618 22.1079C12.9228 22.0918 12.6687 21.9705 12.4992 21.7441L4.36532 12.4296C3.72139 11.6534 3.39943 10.861 3.39943 10.0525L2.89106 2.9211L3.85696 2.19341ZM6.75465 5.58931C6.75465 5.88038 6.65298 6.12295 6.44963 6.317C6.24628 6.51105 5.9921 6.60808 5.68708 6.60808C5.38206 6.60808 5.12788 6.51105 4.92453 6.317C4.72118 6.12295 4.61951 5.88038 4.61951 5.58931C4.61951 5.29823 4.72118 5.05567 4.92453 4.86161C5.12788 4.66756 5.38206 4.57054 5.68708 4.57054C5.9921 4.57054 6.24628 4.66756 6.44963 4.86161C6.65298 5.05567 6.75465 5.29823 6.75465 5.58931ZM7.31386 12.8177L17.2779 15.8255H17.6337C18.1082 15.8255 18.464 15.583 18.7013 15.0978C18.803 14.8391 18.786 14.5804 18.6505 14.3216C18.5149 14.0629 18.3115 13.885 18.0404 13.788L8.07641 10.7802C7.80528 10.6508 7.52568 10.6508 7.2376 10.7802C6.94953 10.9095 6.75465 11.1036 6.65298 11.3623C6.44963 12.1062 6.66992 12.5913 7.31386 12.8177ZM15.4477 17.475C15.4477 17.8954 15.2952 18.2592 14.9902 18.5665C14.6852 18.8737 14.2954 19.0274 13.821 19.0274C13.3465 19.0274 12.9567 18.8737 12.6517 18.5665C12.3467 18.2592 12.1942 17.8954 12.1942 17.475C12.1942 17.0545 12.3552 16.6907 12.6771 16.3834C12.9991 16.0762 13.3804 15.9225 13.821 15.9225C14.2615 15.9225 14.6428 16.0762 14.9648 16.3834C15.2868 16.6907 15.4477 17.0545 15.4477 17.475ZM12.1942 9.22777C12.1942 9.64821 12.0332 10.0121 11.7112 10.3193C11.3893 10.6266 11.008 10.7802 10.5674 10.7802C10.1268 10.7802 9.74555 10.6266 9.42358 10.3193C9.10161 10.0121 8.94063 9.64821 8.94063 9.22777C8.94063 8.80733 9.09314 8.44348 9.39816 8.13623C9.70318 7.82898 10.0929 7.67536 10.5674 7.67536C11.0419 7.67536 11.4316 7.82898 11.7367 8.13623C12.0417 8.44348 12.1942 8.80733 12.1942 9.22777Z" fill="#4348BF"/>
</g>
<defs>
<clipPath id="clip0_683_10407">
<rect width="24" height="24" fill="white" transform="translate(0.705078 0.121216)"/>
</clipPath>
</defs>
</svg>

<svg width="25" height="25" fill="none" xmlns="http://www.w3.org/2000/svg"><g clip-path="url(#a)"><path d="m2.637 13.642 8.134 9.315c.711.776 1.542 1.164 2.49 1.164.848 0 1.577-.242 2.187-.727l7.066-5.676a3.288 3.288 0 0 0 1.17-2.184c.101-.808-.153-1.6-.763-2.377l-8.134-9.314c-.881-1.1-2.034-1.795-3.457-2.086L4.264.204C3.586.01 2.942.156 2.332.641l-.864.728c-.509.355-.763.938-.763 1.746l.407 6.938c.17 1.39.678 2.587 1.525 3.59Zm1.22-11.449 7.168 1.65c.745.162 1.491.598 2.237 1.31l8.134 9.314c.27.259.355.55.254.873 0 .194-.153.47-.458.825l-7.066 5.676a1.223 1.223 0 0 1-.864.267c-.34-.016-.593-.137-.763-.364L4.365 12.43c-.644-.777-.966-1.569-.966-2.377L2.891 2.92l.966-.728ZM6.755 5.59a.964.964 0 0 1-.305.728 1.061 1.061 0 0 1-.763.291c-.305 0-.56-.097-.762-.291a.964.964 0 0 1-.305-.728c0-.29.101-.533.305-.727.203-.194.457-.291.762-.291s.56.097.763.29a.964.964 0 0 1 .305.728Zm.559 7.229 9.964 3.008h.356c.474 0 .83-.243 1.067-.728a.896.896 0 0 0-.05-.776 1.078 1.078 0 0 0-.61-.534L8.075 10.78a.955.955 0 0 0-.838 0c-.288.13-.483.324-.585.582-.203.744.017 1.23.66 1.456Zm8.134 4.657c0 .42-.153.784-.458 1.091-.305.308-.695.461-1.169.461-.474 0-.864-.153-1.17-.46a1.497 1.497 0 0 1-.457-1.092c0-.42.161-.784.483-1.092.322-.307.703-.46 1.144-.46.44 0 .822.153 1.144.46.322.308.483.672.483 1.092Zm-3.254-8.247c0 .42-.16.784-.483 1.091a1.6 1.6 0 0 1-1.144.461 1.6 1.6 0 0 1-1.143-.46c-.322-.308-.483-.672-.483-1.092 0-.42.152-.785.457-1.092.305-.307.695-.46 1.17-.46.474 0 .864.153 1.169.46.305.307.457.671.457 1.092Z" fill="#4348BF"/></g><defs><clipPath id="a"><path fill="#fff" transform="translate(.705 .121)" d="M0 0h24v24H0z"/></clipPath></defs></svg>
